X:215
M:4/4
L:1/4
K:C
G | F G A A | G A !fermata!B c | B A G G | A2 !fermata!G G | F G A A | G A !fermata!B c | B A G G | A2 !fermata!G G | A c B G | A F !fermata!E F | D D A B | c A !fermata!G !sintro!d | B A G G | A2 !fermata!G !eintro!|]
